X:1
T:Title
L:1/8
M:6/8
K:Eb
V:1 treble nm="Grand Piano"
V:1
 z3 z2 G | G3 E2 D | C3 C2 G | G3 F2 A | F3- F2 F | F3 A2 G | F3 E2 E | E3 E2 F | E3- E2 E | %9
 E3 G2 E | D3 C2 c | c2 B A2 B | A3- A2 d | d3 c2 =B | d3 c2 =B | e2 d c=Bd | c3- c2 G | c3 B2 A | %18
 G2 F D2 E | F2 G E2 D | C3- C2 c | c3- c2 G | c3 B2 A | G2 F D2 E | F2 G E2 D | C3- C2 =E | %26
 =E3 E2 G | G3 G2 c | c2 B A2 B | A3- A2 d | d3 c2 =B | d3 c2 =B | e2 d c=Bc | c3- c2 G | c3 d2 c | %35
 B3 A2 A | B3 c2 A | G3- G2 G | c3 B2 A | G2 F D2 E | F2 G E2 D | C6 |] %42

